storage/app/icons/phosphoricons/thin/square-half-thin.svg

<svg xmlns="http://www.w3.org/2000/svg" fill="currentColor" viewBox="0 0 256 256"><path d="M200 44H56a12 12 0 0 0-12 12v144a12 12 0 0 0 12 12h144a12 12 0 0 0 12-12V56a12 12 0 0 0-12-12m-68 72h72v24h-72Zm0-8V84h72v24Zm0 40h72v24h-72Zm72-92v20h-72V52h68a4 4 0 0 1 4 4M52 200V56a4 4 0 0 1 4-4h68v152H56a4 4 0 0 1-4-4m148 4h-68v-24h72v20a4 4 0 0 1-4 4"/></svg>

<svg xmlns="http://www.w3.org/2000/svg" viewBox="0 0 256 256" fill="currentColor"><path d="M200,44H56A12,12,0,0,0,44,56V200a12,12,0,0,0,12,12H200a12,12,0,0,0,12-12V56A12,12,0,0,0,200,44Zm-68,72h72v24H132Zm0-8V84h72v24Zm0,40h72v24H132Zm72-92V76H132V52h68A4,4,0,0,1,204,56ZM52,200V56a4,4,0,0,1,4-4h68V204H56A4,4,0,0,1,52,200Zm148,4H132V180h72v20A4,4,0,0,1,200,204Z"/></svg>
